X:1
T:The Billy Mitchell Scottish  "In commeration of the band's 20th annive
M:6/8
L:1/8
Q:80
C:G.M. Bottoni (C) 3/1991
S:
K:HP
|: e | \
{Gdc}d2{gdc}d{g}f3/2e/2d | \
{g}G3/2{d}G/2{e}G{g}B3/2A/2{d}G | \
{g}A2{GdGe}A{Gdc}d2g |
{g}f/2a3/2d{gef}e2A | \
{Gdc}d2{gdc}d{g}f3/2e/2d | \
{g}G3/2{d}G/2{e}G{g}B3/2A/2{d}G |
{g}A3/2B/2d{g}c/2a3/2f | \
{gef}e3{Gdc}d2 :: \
g |
{ag}a2d{g}f3/2g/2a | \
G3/2{d}G/2{e}G{g}B3/2A/2{d}G | \
A2{GdGe}A{Gdc}d2a |
{g}a3/2f/2d{gef}e2g | \
{ag}a2d{g}f3/2g/2a | \
G3/2{d}G/2{e}G{g}B3/2A/2{d}G |
{g}A3/2B/2d{g}c/2a3/2f | \
{gef}e3{Gdc}d2 :: \
e |
{Gdc}d3{e}A3 | \
{g}B3/2{d}G/2{e}G{g}A2B | \
{Gdc}d2e{g}f3/2e/2d |
{g}c/2e3/2f{gef}e2A | \
{Gdc}d3{e}A3 | \
{g}B3/2{d}G/2{e}G{g}A2B |
{g}A3/2B/2da3/2d/2f | \
{gef}e3{Gdc}d3 :| \
g |
a2{GdG}a{g}a3/2f/2d | \
{g}B3/2{d}G/2{e}G{g}A2B | \
{Gdc}d2e{g}f3/2e/2d |
a3/2g/2f{gef}e3|1 g|2 f|1
a2{GdG}a{g}a3/2f/2d | \
{g}B3/2{d}G/2{e}G{g}A2B |
{g}A3/2B/2da3/2d/2f | \
{gef}e3{Gdc}d2 :|
